packages/core/src/svgs/tokens/branded/LING.svg

<svg width="24" height="24" viewBox="0 0 24 24" fill="none" xmlns="http://www.w3.org/2000/svg">
<path fill-rule="evenodd" clip-rule="evenodd" d="M6.08889 5.33336C4.87223 5.33336 4.04445 6.62225 4.04445 7.73336C4.04445 8.02225 4.1 8.28892 4.16667 8.49448C3.22223 10.8222 2 13.5279 2 16.0778C2 17.2445 2.63333 18.6666 3.98333 18.6666C5.87223 18.6666 7.70556 16.1223 8.68889 14.7777C9.76115 15.0001 10.9111 15.3501 12 15.3333C13.0944 15.3501 14.2389 15.0001 15.3111 14.7777C16.25 16.0556 18.1167 18.6666 20.0167 18.6666C21.3666 18.6666 22 17.2445 22 16.0778C22 13.5223 20.7777 10.8222 19.8334 8.49448C19.9 8.28337 19.9556 8.02225 19.9556 7.73336C19.9556 6.62225 19.1222 5.33336 17.9111 5.33336C17.1945 5.33336 16.7722 5.5278 16.2167 5.78892L16.0278 5.87226C14.7389 5.6667 13.3888 5.33336 12 5.33336C10.6111 5.33336 9.26111 5.6667 7.97223 5.87226L7.78333 5.78892C7.22778 5.5278 6.80557 5.33336 6.08889 5.33336ZM12 7.00003C10.6111 7.00003 9.31667 7.12225 8.03889 7.40003C7.88889 7.43336 7.73334 7.4167 7.59445 7.35558L7.07779 7.13336C6.58334 6.90558 6.46667 6.85003 6.08889 6.85003C5.73333 6.85003 5.53334 7.46114 5.53334 7.73892C5.5329 7.86529 5.55942 7.99029 5.61112 8.10558C5.73333 8.31115 5.75 8.5667 5.65556 8.78892C4.71111 11.0833 3.66667 13.5556 3.66667 16.0778C3.66667 16.3556 3.75 17 4.16667 17C5.51111 16.9778 7.13333 14.3334 7.77779 13.4222C7.94445 13.1723 8.25556 13.0556 8.55 13.1278C9.53883 13.3667 11.1278 13.65 12 13.6667C12.8723 13.65 14.4611 13.3667 15.4499 13.1278C15.7445 13.0556 16.05 13.1723 16.2277 13.4222C17.0389 14.5889 18.1556 16.9667 19.8389 17C20.25 17 20.3334 16.3612 20.3334 16.0778C20.3334 13.5556 19.2889 11.0779 18.3444 8.78892C18.2499 8.5667 18.2667 8.31115 18.3889 8.10558C18.4444 7.98891 18.4723 7.86114 18.4723 7.73336C18.4723 7.46114 18.2667 6.85003 17.9167 6.85003C17.5333 6.85003 17.4167 6.90559 16.9167 7.12781L16.4111 7.35558C16.2666 7.4167 16.1111 7.43336 15.9666 7.40003C14.6833 7.12225 13.3888 7.00003 12 7.00003Z" fill="url(#paint0_linear_364_10843)"/>
<path d="M8.66677 9.22226C8.66677 8.91544 8.41804 8.6667 8.11122 8.6667C7.80438 8.6667 7.55566 8.91544 7.55566 9.22226V11.4445C7.55566 11.7513 7.80438 12 8.11122 12C8.41804 12 8.66677 11.7513 8.66677 11.4445V9.22226Z" fill="#9410ED"/>
<path d="M9.22212 10.8889C9.529 10.8889 9.77763 10.6402 9.77763 10.3334C9.77763 10.0266 9.529 9.77781 9.22212 9.77781H6.9999C6.69307 9.77781 6.44434 10.0266 6.44434 10.3334C6.44434 10.6402 6.69307 10.8889 6.9999 10.8889H9.22212Z" fill="#9410ED"/>
<path d="M15.6108 11.4445C16.3779 11.4445 16.9998 10.8226 16.9998 10.0556C16.9998 9.28854 16.3779 8.6667 15.6108 8.6667C14.8438 8.6667 14.2219 9.28854 14.2219 10.0556C14.2219 10.8226 14.8438 11.4445 15.6108 11.4445Z" fill="#7024E7"/>
<defs>
<linearGradient id="paint0_linear_364_10843" x1="12" y1="5.33336" x2="12" y2="18.6666" gradientUnits="userSpaceOnUse">
<stop stop-color="#B202FB"/>
<stop offset="1" stop-color="#3741D7"/>
</linearGradient>
</defs>
</svg>

<svg xmlns="http://www.w3.org/2000/svg" width="24" height="24" fill="none" viewBox="0 0 24 24">
    <path fill="url(#LING__a)" fill-rule="evenodd" d="M6.089 5.333c-1.217 0-2.045 1.29-2.045 2.4 0 .29.056.556.123.761C3.222 10.822 2 13.528 2 16.078c0 1.166.633 2.589 1.983 2.589 1.89 0 3.723-2.545 4.706-3.89 1.072.223 2.222.573 3.311.556 1.094.017 2.239-.333 3.311-.555.939 1.278 2.806 3.889 4.706 3.889 1.35 0 1.983-1.423 1.983-2.59 0-2.555-1.222-5.255-2.167-7.583a2.5 2.5 0 0 0 .123-.76c0-1.112-.834-2.4-2.045-2.4-.716 0-1.139.194-1.694.455l-.19.083C14.74 5.667 13.39 5.333 12 5.333s-2.739.334-4.028.54l-.189-.084c-.555-.261-.977-.456-1.694-.456M12 7c-1.389 0-2.683.122-3.961.4a.7.7 0 0 1-.445-.044l-.516-.223c-.495-.227-.611-.283-.99-.283-.355 0-.555.611-.555.889q0 .191.078.367a.76.76 0 0 1 .045.683c-.945 2.294-1.99 4.767-1.99 7.289 0 .278.084.922.5.922 1.345-.022 2.967-2.667 3.612-3.578a.72.72 0 0 1 .772-.294c.989.239 2.578.522 3.45.539.872-.017 2.461-.3 3.45-.54a.74.74 0 0 1 .778.295c.81 1.167 1.928 3.545 3.61 3.578.412 0 .495-.639.495-.922 0-2.522-1.044-5-1.989-7.29a.76.76 0 0 1 .045-.682.9.9 0 0 0 .083-.373c0-.272-.205-.883-.555-.883-.384 0-.5.056-1 .278l-.506.228a.73.73 0 0 1-.444.044C14.683 7.122 13.389 7 12 7" clip-rule="evenodd"/>
    <path fill="#9410ED" d="M8.667 9.222a.556.556 0 0 0-1.111 0v2.223a.556.556 0 0 0 1.11 0z"/>
    <path fill="#9410ED" d="M9.222 10.889a.555.555 0 1 0 0-1.111H7a.556.556 0 0 0 0 1.11z"/>
    <path fill="#7024E7" d="M15.61 11.445a1.389 1.389 0 1 0 0-2.779 1.389 1.389 0 0 0 0 2.778"/>
    <defs>
        <linearGradient id="LING__a" x1="12" x2="12" y1="5.333" y2="18.667" gradientUnits="userSpaceOnUse">
            <stop stop-color="#B202FB"/>
            <stop offset="1" stop-color="#3741D7"/>
        </linearGradient>
    </defs>
</svg>
